Yaru++/apps/scalable/rhythmbox.svg

<svg height="256" width="256" xmlns="http://www.w3.org/2000/svg" xmlns:xlink="http://www.w3.org/1999/xlink"><radialGradient id="a" cx="247.495" cy="220.054" gradientTransform="matrix(.06208652 -.23171004 .13288505 .03560643 108.00222 203.78617)" gradientUnits="userSpaceOnUse" r="160"><stop offset="0" stop-color="#fee581"/><stop offset="1" stop-color="#eab305"/></radialGradient><radialGradient id="b" cx="265.282" cy="65.436" gradientTransform="matrix(.17784427 .04765323 -.04765668 .17785713 113.89643 106.85193)" gradientUnits="userSpaceOnUse" r="56"><stop offset="0" stop-color="#4d4d4d"/><stop offset=".572" stop-color="#333"/><stop offset="1" stop-color="#1a1a1a"/></radialGradient><linearGradient id="c" gradientUnits="userSpaceOnUse" x1="88" x2="488" y1="88" y2="488"><stop offset="0" stop-opacity=".588235"/><stop offset=".88" stop-opacity="0"/><stop offset="1"/></linearGradient><filter id="d" color-interpolation-filters="sRGB" height="1.088" width="1.106" x="-.05" y="-.04"><feGaussianBlur stdDeviation="8.48"/></filter><filter id="e" color-interpolation-filters="sRGB" height="1.022" width="1.026" x="-.01" y="-.01"><feGaussianBlur stdDeviation="2.12"/></filter><path d="m189.84323 74c-70.59344 0-78.18921 7.250835-77.84323 77.98706v146.01294 146.01294c-.34598 70.73623 7.24979 77.98706 77.84323 77.98706h196.31354c70.59344 0 76.00668-7.27384 77.84323-77.98706v-146.01294-146.01294c0-70.737067-7.24979-77.98706-77.84323-77.98706z" filter="url(#e)" opacity=".1" transform="matrix(.5 0 0 .5 -17.194334 -20.752013)"/><path d="m189.84323 74c-70.59344 0-78.18921 7.250835-77.84323 77.98706v146.01294 146.01294c-.34598 70.73623 7.24979 77.98706 77.84323 77.98706h196.31354c70.59344 0 77.84323-7.24999 77.84323-77.98706v-146.01294-146.01294c0-70.737067-7.24979-77.98706-77.84323-77.98706z" fill="url(#c)" filter="url(#d)" opacity=".3" transform="matrix(.5 0 0 .5 -17.194334 -20.752013)"/><path d="m76.617266 13.247987c-36.098811 0-39.983003 3.690158-39.806081 39.689842v74.310161 74.31015c-.176922 35.99969 3.70727 39.68984 39.806081 39.68984h100.387334c36.09881 0 39.80608-3.68973 39.80608-39.68984v-74.31015-74.310161c0-36.000113-3.70727-39.689842-39.80608-39.689842z" opacity=".1"/><path d="m175.87866 15.247987c35.29673 0 39.09461 3.625418 38.92162 38.99353v73.006473 73.00646c.17299 35.36812-3.62489 38.99353-38.92162 38.99353h-98.156774c-35.296716 0-38.921616-3.625-38.921616-38.99353v-73.00646-73.006473c0-35.368533 3.6249-38.99353 38.921616-38.99353z" fill="#e3dfd5"/><g enable-background="new" transform="matrix(2.25 0 0 2.25 -292.87518 -72.220095)"><rect fill="#4d4d4d" height="64" rx="37.925999" width="64" x="154.53" y="56.650002"/><ellipse cx="186.52499" cy="88.653" fill="#191622" rx="28" ry="28.000999"/><ellipse cx="186.52499" cy="88.653" fill="#4d4d4d" rx="24" ry="24.000999"/><ellipse cx="157.189" cy="133.99699" fill="url(#a)" rx="22.011" ry="22.011999" transform="matrix(.96592583 -.25881905 .25881905 .96592583 0 0)"/><ellipse cx="186.51401" cy="88.747002" rx="10.011" ry="10.012"/><circle cx="157.189" cy="133.996" fill="url(#b)" r="8.011" transform="matrix(.96592583 -.25881905 .25881905 .96592583 0 0)"/></g><path d="m77.727546 15.247987c-35.296728 0-39.09487 3.626029-38.92188 38.994141v2c-.17299-35.368112 3.625152-38.994141 38.92188-38.994141h98.156254c35.29673 0 38.92188 3.625608 38.92188 38.994141v-2c0-35.368533-3.62515-38.994141-38.92188-38.994141z" fill="#fff" opacity=".3"/><path d="m77.732946 239.24798c-35.296731 0-39.094875-3.62603-38.921885-38.99414v-2c-.17299 35.36811 3.625154 38.99414 38.921885 38.99414h98.156254c35.29673 0 38.92188-3.62561 38.92188-38.99414v2c0 35.36853-3.62515 38.99414-38.92188 38.99414z" opacity=".2"/></svg>

<?xml version="1.0" encoding="UTF-8" standalone="no"?>
<svg
   xmlns:dc="http://purl.org/dc/elements/1.1/"
   xmlns:cc="http://creativecommons.org/ns#"
   xmlns:rdf="http://www.w3.org/1999/02/22-rdf-syntax-ns#"
   xmlns:svg="http://www.w3.org/2000/svg"
   xmlns="http://www.w3.org/2000/svg"
   xmlns:xlink="http://www.w3.org/1999/xlink"
   xmlns:sodipodi="http://sodipodi.sourceforge.net/DTD/sodipodi-0.dtd"
   xmlns:inkscape="http://www.inkscape.org/namespaces/inkscape"
   width="256"
   height="256"
   version="1.0"
   id="svg69"
   sodipodi:docname="rhythmbox.svg"
   inkscape:version="0.92.4 (5da689c313, 2019-01-14)">
  <metadata
     id="metadata73">
    <rdf:RDF>
      <cc:Work
         rdf:about="">
        <dc:format>image/svg+xml</dc:format>
        <dc:type
           rdf:resource="http://purl.org/dc/dcmitype/StillImage" />
      </cc:Work>
    </rdf:RDF>
  </metadata>
  <sodipodi:namedview
     pagecolor="#ffffff"
     bordercolor="#666666"
     borderopacity="1"
     objecttolerance="10"
     gridtolerance="10"
     guidetolerance="10"
     inkscape:pageopacity="0"
     inkscape:pageshadow="2"
     inkscape:window-width="793"
     inkscape:window-height="480"
     id="namedview71"
     showgrid="false"
     inkscape:zoom="0.921875"
     inkscape:cx="128"
     inkscape:cy="128"
     inkscape:window-x="0"
     inkscape:window-y="27"
     inkscape:window-maximized="0"
     inkscape:current-layer="svg69" />
  <defs
     id="defs46">
    <linearGradient
       id="e">
      <stop
         id="stop2"
         offset="0"
         stop-color="#5e5c64" />
      <stop
         id="stop4"
         offset=".572"
         stop-color="#3d3846" />
      <stop
         id="stop6"
         offset="1"
         stop-color="#241f31" />
    </linearGradient>
    <linearGradient
       id="d">
      <stop
         id="stop9"
         offset="0"
         stop-color="#77767b" />
      <stop
         id="stop11"
         offset=".05"
         stop-color="#c0bfbc" />
      <stop
         id="stop13"
         offset=".1"
         stop-color="#9a9996" />
      <stop
         id="stop15"
         offset=".9"
         stop-color="#9a9996" />
      <stop
         id="stop17"
         offset=".95"
         stop-color="#c0bfbc" />
      <stop
         id="stop19"
         offset="1"
         stop-color="#77767b" />
    </linearGradient>
    <linearGradient
       id="a">
      <stop
         id="stop22"
         offset="0"
         stop-color="#d5d3cf" />
      <stop
         id="stop24"
         offset="1"
         stop-color="#f6f5f4" />
    </linearGradient>
    <linearGradient
       id="b">
      <stop
         id="stop27"
         offset="0"
         stop-color="#d5d3cf" />
      <stop
         id="stop29"
         offset="1"
         stop-color="#949390" />
    </linearGradient>
    <linearGradient
       id="c">
      <stop
         id="stop32"
         offset="0"
         stop-color="#9a9996" />
      <stop
         id="stop34"
         offset="1"
         stop-color="#77767b" />
    </linearGradient>
    <linearGradient
       id="g"
       x1="88.596"
       x2="536.596"
       y1="-449.394"
       y2="-449.394"
       gradientTransform="matrix(0.19643,0,0,0.3421,-365.403,445.74)"
       gradientUnits="userSpaceOnUse"
       xlink:href="#d" />
    <linearGradient
       id="f">
      <stop
         id="stop38"
         offset="0"
         stop-color="#f6d32d" />
      <stop
         id="stop40"
         offset="1"
         stop-color="#f9f06b" />
    </linearGradient>
    <radialGradient
       id="i"
       cx="265.282"
       cy="65.436"
       r="56"
       fx="265.282"
       fy="65.436"
       gradientTransform="matrix(0.17784,0.04765,-0.04766,0.17786,-40.002,207.808)"
       gradientUnits="userSpaceOnUse"
       xlink:href="#e" />
    <linearGradient
       id="h"
       x1="99.846"
       x2="431.139"
       y1="91.301"
       y2="91.301"
       gradientTransform="matrix(0.13281,0,0,0.13281,190.74,-76.125)"
       gradientUnits="userSpaceOnUse"
       xlink:href="#f" />
    <radialGradient
       id="radialGradient1052-9"
       cx="247.495"
       cy="220.054"
       r="160"
       fx="247.495"
       fy="220.054"
       gradientTransform="matrix(0.06208652,-0.23171004,0.13288505,0.03560643,108.00222,203.78617)"
       gradientUnits="userSpaceOnUse"
       xlink:href="#linearGradient8236" />
    <linearGradient
       id="linearGradient8236">
      <stop
         id="stop8232"
         offset="0"
         style="stop-color:#fee581" />
      <stop
         id="stop8234"
         offset="1"
         style="stop-color:#eab305" />
    </linearGradient>
    <radialGradient
       id="radialGradient1054-0"
       cx="265.282"
       cy="65.436"
       r="56"
       fx="265.282"
       fy="65.436"
       gradientTransform="matrix(0.17784427,0.04765323,-0.04765668,0.17785713,113.89643,106.85193)"
       gradientUnits="userSpaceOnUse"
       xlink:href="#linearGradient1171" />
    <linearGradient
       id="linearGradient1171">
      <stop
         style="stop-color:#4d4d4d"
         id="stop1165"
         offset="0" />
      <stop
         id="stop1167"
         offset=".572"
         style="stop-color:#333333" />
      <stop
         style="stop-color:#1a1a1a"
         id="stop1169"
         offset="1" />
    </linearGradient>
    <linearGradient
       id="linearGradient4358"
       x1="88"
       x2="488"
       y1="88"
       y2="488"
       gradientUnits="userSpaceOnUse"
       xlink:href="#linearGradient4360" />
    <linearGradient
       id="linearGradient4360">
      <stop
         id="stop4362"
         offset="0"
         style="stop-color:#000000;stop-opacity:0.58823532" />
      <stop
         style="stop-color:#000000;stop-opacity:0"
         id="stop4364"
         offset=".88" />
      <stop
         id="stop4366"
         offset="1"
         style="stop-color:#000000" />
    </linearGradient>
    <filter
       style="color-interpolation-filters:sRGB"
       id="filter4380"
       width="1.106"
       height="1.088"
       x="-.05"
       y="-.04">
      <feGaussianBlur
         id="feGaussianBlur4382"
         stdDeviation="8.48" />
    </filter>
    <filter
       style="color-interpolation-filters:sRGB"
       id="filter4346"
       width="1.026"
       height="1.022"
       x="-.01"
       y="-.01">
      <feGaussianBlur
         id="feGaussianBlur4348"
         stdDeviation="2.12" />
    </filter>
  </defs>
  <path
     style="opacity:0.1;filter:url(#filter4346)"
     d="M 189.84323,74 C 119.24979,74 111.65402,81.250835 112,151.98706 V 298 444.01294 C 111.65402,514.74917 119.24979,522 189.84323,522 H 386.15677 C 456.75021,522 462.16345,514.72616 464,444.01294 V 298 151.98706 C 464,81.249993 456.75021,74 386.15677,74 Z"
     transform="matrix(0.5,0,0,0.5,-17.194334,-20.752013)"
     id="path48"
     inkscape:connector-curvature="0" />
  <path
     d="M 189.84323,74 C 119.24979,74 111.65402,81.250835 112,151.98706 V 298 444.01294 C 111.65402,514.74917 119.24979,522 189.84323,522 H 386.15677 C 456.75021,522 464,514.75001 464,444.01294 V 298 151.98706 C 464,81.249993 456.75021,74 386.15677,74 Z"
     transform="matrix(0.5,0,0,0.5,-17.194334,-20.752013)"
     style="opacity:0.3;fill:url(#linearGradient4358);filter:url(#filter4380)"
     id="path50"
     inkscape:connector-curvature="0" />
  <path
     style="opacity:0.1"
     d="m 76.617266,13.247987 c -36.098811,0 -39.983003,3.690158 -39.806081,39.689842 v 74.310161 74.31015 c -0.176922,35.99969 3.70727,39.68984 39.806081,39.68984 H 177.0046 c 36.09881,0 39.80608,-3.68973 39.80608,-39.68984 V 127.24799 52.937829 c 0,-36.000113 -3.70727,-39.689842 -39.80608,-39.689842 z"
     id="path52"
     inkscape:connector-curvature="0" />
  <path
     style="fill:#e3dfd5"
     d="m 175.87866,15.247987 c 35.29673,0 39.09461,3.625418 38.92162,38.99353 v 73.006473 73.00646 c 0.17299,35.36812 -3.62489,38.99353 -38.92162,38.99353 H 77.721886 c -35.296716,0 -38.921616,-3.625 -38.921616,-38.99353 V 127.24799 54.241517 c 0,-35.368533 3.6249,-38.99353 38.921616,-38.99353 z"
     id="path54"
     inkscape:connector-curvature="0" />
  <g
     style="enable-background:new"
     transform="matrix(2.25,0,0,2.25,-292.87518,-72.220095)"
     id="g63">
    <rect
       style="fill:#4d4d4d"
       width="64"
       height="64"
       x="154.53"
       y="56.650002"
       rx="37.925999"
       ry="37.925999"
       id="rect56" />
    <ellipse
       id="ellipse1040-6"
       cx="186.52499"
       cy="88.653"
       rx="28"
       ry="28.000999"
       style="fill:#191622" />
    <ellipse
       style="fill:#4d4d4d"
       id="ellipse1042-5"
       cx="186.52499"
       cy="88.653"
       rx="24"
       ry="24.000999" />
    <ellipse
       id="ellipse1044-8"
       cx="157.189"
       cy="133.99699"
       rx="22.011"
       ry="22.011999"
       transform="rotate(-15)"
       style="fill:url(#radialGradient1052-9)" />
    <ellipse
       id="ellipse1046-5"
       cx="186.51401"
       cy="88.747002"
       rx="10.011"
       ry="10.012" />
    <circle
       id="ellipse1048-8"
       cx="157.189"
       cy="133.996"
       transform="rotate(-15)"
       style="fill:url(#radialGradient1054-0)"
       r="8.0109997" />
  </g>
  <path
     style="opacity:0.3;fill:#ffffff"
     d="m 77.727546,15.247987 c -35.296728,0 -39.09487,3.626029 -38.92188,38.994141 v 2 C 38.632676,20.874016 42.430818,17.247987 77.727546,17.247987 H 175.8838 c 35.29673,0 38.92188,3.625608 38.92188,38.994141 v -2 c 0,-35.368533 -3.62515,-38.994141 -38.92188,-38.994141 z"
     id="path65"
     inkscape:connector-curvature="0" />
  <path
     style="opacity:0.2"
     d="m 77.732946,239.24798 c -35.296731,0 -39.094875,-3.62603 -38.921885,-38.99414 v -2 c -0.17299,35.36811 3.625154,38.99414 38.921885,38.99414 H 175.8892 c 35.29673,0 38.92188,-3.62561 38.92188,-38.99414 v 2 c 0,35.36853 -3.62515,38.99414 -38.92188,38.99414 z"
     id="path67"
     inkscape:connector-curvature="0" />
</svg>
